X: 10203
T: FOR A' THAT AND A' THAT
%R: air, strathspey
B: W. Hamilton "Universal Tune-Book" Vol. 1 Glasgow 1844 p.20 #3
S: http://imslp.org/wiki/Hamilton's_Universal_Tune-Book_(Various)
Z: 2016 John Chambers <jc:trillian.mit.edu>
M: C
L: 1/8
K: Bb
%%slurgraces yes
%%graceslurs yes
% - - - - - - - - - - - - - - - - - - - - - - - - -
(F/G/) |\
B>c BF GB ce | d>c BF G2 G(d/c/) |\
B>c BF GB ce | d>c BG {G}F2 F ::\
e |\
d>e fd e>d ce | d>e fB G2 Ge |\
d>e fd gc c>e | d>c BG {G}F2 F :|
% - - - - - - - - - - - - - - - - - - - - - - - - -

%%sep 1 1 500
%%sep 1 1 500

